img/psb.svg

<svg width="189" height="58" viewBox="0 0 189 58" fill="none" xmlns="http://www.w3.org/2000/svg">
<path d="M38.4728 0L19.2373 19.3339H38.4728V58L57.7101 38.7126V0H38.4728Z" fill="white"/>
<path d="M19.2372 58L38.4745 38.6661H19.2372V0L0 19.2874V58H19.2372Z" fill="white"/>
<path d="M76.9473 48.3331H87.0457V18.366H102.434V48.3331H112.533V9.66696H76.9473V48.3331ZM175.049 24.1545H166.421V18.366H185.634V9.66696H156.321V48.3331H175.529C183.23 48.3331 189 44.4528 189 36.2429C189 28.033 183.23 24.1545 175.049 24.1545ZM174.086 40.1179H166.421V32.392H174.086C176.468 32.392 178.884 33.3358 178.884 36.2429C178.884 39.15 176.472 40.1179 174.086 40.1179ZM137.255 40.0938C130.514 40.0938 126.725 35.1269 126.725 28.9871C126.725 24.058 129.484 17.8717 137.063 17.8717C141.795 17.8717 144.847 20.7772 145.93 22.1308L152.069 15.96C150.176 13.6811 147.808 11.8483 145.132 10.5914C142.456 9.33458 139.537 8.68443 136.583 8.687C125.428 8.687 116.625 16.9848 116.625 28.9871C116.625 40.1989 125.428 49.2872 136.583 49.2872C139.754 49.29 142.88 48.5417 145.708 47.1029C148.537 45.6642 150.988 43.5756 152.863 41.0066L146.68 34.7911C144.725 37.8687 141.539 40.0887 137.255 40.0887" fill="white"/>
</svg>

<svg xmlns="http://www.w3.org/2000/svg" width="189" height="58" fill="none"><path fill="#fff" d="M38.473 0 19.237 19.334h19.236V58L57.71 38.713V0H38.473Z"/><path fill="#fff" d="m19.237 58 19.238-19.334H19.236V0L0 19.287V58h19.237ZM76.947 48.333h10.099V18.366h15.388v29.967h10.099V9.667H76.947v38.666Zm98.102-24.178h-8.628v-5.789h19.213V9.667h-29.313v38.666h19.208c7.701 0 13.471-3.88 13.471-12.09s-5.77-12.089-13.951-12.089Zm-.963 15.963h-7.665v-7.726h7.665c2.382 0 4.798.944 4.798 3.85 0 2.908-2.412 3.876-4.798 3.876Zm-36.831-.024c-6.741 0-10.53-4.967-10.53-11.107 0-4.929 2.759-11.115 10.338-11.115 4.732 0 7.784 2.905 8.867 4.259l6.139-6.171a20.163 20.163 0 0 0-6.937-5.369 20.069 20.069 0 0 0-8.549-1.904c-11.155 0-19.958 8.298-19.958 20.3 0 11.212 8.803 20.3 19.958 20.3a20.081 20.081 0 0 0 9.125-2.184 20.19 20.19 0 0 0 7.155-6.096l-6.183-6.216c-1.955 3.078-5.141 5.298-9.425 5.298"/></svg>
